!!!COM: Chopin, Frederic
!!!CDT: 1810///-1849///
!!!OTL: Prelude in B-flat Minor, Op. 28, No. 16
!!!OPS: Op. 28
!!!ONM: No. 16
!!!OMD: Presto con fuoco
!!!ODT: 1836///-1839///
!!!ONB: most difficult prelude after No. 19
!!!PDT: 1839///
!!!ENC: Craig Stuart Sapp
!!!AIN: piano
!!!EEV: 13 March 2001
!!!YEC: Copyright 2001 by Craig Stuart Sapp
!!!YEN: United States of America
**kern	**kern
*Ipiano	*Ipiano
*lh	*rh
*clefF4	*clefG2
*k[b-e-a-d-g-]	*k[b-e-a-d-g-]
*b-:	*b-:
*M2/2	*M2/2
*met(C|)	*met(C|)
*MM110	*MM110
6FFF^ 6FF^	6e-^ 6an^ 6gg-^
6C^ 6F^ 6c^	6e-^ 6an^ 6ff^
6C^ 6F^ 6c^	6e-^ 6an^ 6een^
6C^ 6F^ 6c^	6e-^ 6an^ 6ee-^
6C^ 6F^ 6c^	6e-^ 6an^ 6dd-^
6C^ 6F^ 6c^	6e-^ 6an^ 6cc^
=2;	=2;
!! Presto con fuoco
*MM184	*MM184
8BB-	16ff
.	16cc
8F 8d-	16ee-
.	16dd-
8r	16f
.	16an
8FF	16b-
.	16cc
8BB-	16dd-
.	16ee-
8F 8d-	16ff
.	16ggn
8r	16aan
.	16bb-
8FF	16ccc
.	16ddd
=3	=3
8BB-	16eee-
.	16fff
8F 8d-	16gggn
.	16aaan
8r	16bbb-
.	16cccc
8FF	16dddd-
.	16eeee-
8BB-	16eeeen
.	16ffff
8F 8d-	16eeee-
.	16dddd-
8r	16cccc
.	16bbb-
8FF	16aaa
.	16bbb-
=4	=4
8BB-	16aaa-
.	16ggg-
8F 8d-	16fff
.	16eeen
8r	16fff
.	16eee-
8FF	16ddd-
.	16ccc
8BB-	16bb-
.	16aan
8F 8d-	16bb-
.	16aa-
8r	16gg-
.	16ff
8FF	16ee-
.	16dd-
=5	=5
8BB-	16cc
.	16dd-
8EE- 8G- 8e-	16ee-
.	16ff
8r	16gg-
.	16aa-
8BBB-	16bb-
.	16ccc
8BB-	16bb-
.	16aa-
8E- 8G- 8e-	16gg-
.	16ff
8r	16ee-
.	16dd-
8BBB-	16cc
.	16ee-
=6	=6
8BB-	16gg-
.	16ddn
8E- 8G- 8e-	16ff
.	16ee-
8r	16cc
.	16g-
8BBB-	16bn
.	16cc
8BB-	16dd-
.	16cc
8E- 8G- 8e-	16ddn
.	16ee-
8r	16ff
.	16ee-
8BBB-	16een
.	16ff
=7	=7
8BB-	16aa-
.	16gg
8E- 8G- 8e-	16aan
.	16bb-
8r	16ddd-
.	16ccc
8BBB-	16ddd-
.	16dddn
8BB-	16fff
.	16eee-
8E- 8G- 8e-	16eeen
.	16fff
8r	16aaa-
.	16bbb-
8BB-	16aaa-
.	16gggn
=8	=8
8AAn	16ggg-
.	16ffff
8G- 8e-	16eeee-
.	16eee-
8r	16dddd-
.	16cccc
8AAAn	16ccc
.	16bbb-
8AA	16aaan
.	16aan
8G- 8e-	16aaa-
.	16ggg-
8r	16gg-
.	16fff
8AA	16eee-
.	16gg-
=9	=9
8BB-	16ff
.	16eee-
8F 8d-	16ddd-
.	16ff
8r	16ddd-
.	16ccc
8BB-	16ee-
.	16ccc
8D-	16dd-
.	16bb-
8F 8B- 8f	16aa-
.	16cc
8r	16aa-
.	16gg-
8D-	16b-
.	16gg-
=10	=10
8E-	16an
.	16b-
8An 8g-	16cc
.	16dd-
8r	16ee-
.	16een
8E-	16ff
.	16gg-
8D-	16een
.	16ff
8F 8B- 8f	16ddn
.	16ee-
8r	16cc
.	16dd-
8D-	16cc
.	16b-
=11	=11
8E-	16an
.	16b-
8An 8g-	16cc
.	16dd-
8r	16ee-
.	16een
8E-	16ff
.	16gg-
8D-	16een
.	16ff
8F 8B- 8f	16ddn
.	16ee-
8r	16cc
.	16dd-
8D-	16cc
.	16b-
=12	=12
8F	16bn
.	16cc
8Bn 8a-	16ddn
.	16ee-
8r	16een
.	16ff
8F	16ggn
.	16gg#
8E-	16ff#
.	16ggn
8Gn 8c 8gn	16een
.	16ffn
8r	16ddn
.	16ee-
8E-	16ddn
.	16cc
=13	=13
8F	16bn
.	16cc
8Bn 8a-	16ddn
.	16ee-
8r	16een
.	16ff
8F	16ggn
.	16aa-
8E-	16ff#
.	16ggn
8Gn 8c 8gn	16een
.	16ffn
8r	16ddn
.	16ee-
8E-	16ddn
.	16cc
=14	=14
8F	16dd-
.	16ee-
8A- 8d- 8a-	16ff
.	16gg-
8r	16aa-
.	16bb-
8F	16bbn
.	16ccc
8G-	16ccc#
.	16dddn
8An 8d- 8an	16fff
.	16eee-
8r	16cccn
.	16aan
8G-	16gg-
.	16ee-
=15	=15
8F	16dd-
.	16ee-
8A- 8d- 8a-	16ff
.	16gg-
8r	16aa-
.	16bb-
8F	16bbn
.	16ccc
8En	16ddd-
.	16ccc
8B- 8d- 8gn	16eee-
.	16ddd-
8r	16bb-
.	16ggn
8E	16een
.	16dd-
=16	=16
8E-	16cc
.	16dd-
8An 8c 8g-	16ddn
.	16ee-
8r	16een
.	16ff
8E-	16gg-
.	16ggn
8D-	16aa-
.	16aa
8F 8B- 8f	16ccc
.	16bb-
4r	16gg-
.	16ff
.	16ee-
.	16dd-
=17	=17
8FF	16cc
.	16b-
8r	16an
.	16cc
4C: 4F: 4A: 4e-:	16g-
.	16f
.	16en
.	16f
2r	16g-
.	16f
.	16b-
.	16an
.	16dd-
.	16cc
.	16aa-
.	16gg-
=18	=18
8BBB- 8BB-	16ff
.	16cc
8D- 8F 8d-	16ee-
.	16dd-
8r	16f
.	16an
8FFF 8FF	16b-
.	16cc
8BBB- 8BB-	16dd-
.	16ee-
8D- 8F 8d-	16ff
.	16ggn
8r	16aan
.	16bb-
8FFF 8FF	16ccc
.	16ddd-
=19	=19
8BBB- 8BB-	16eee-
.	16fff
8D- 8F 8d-	16gggn
.	16aaan
8r	16bbb-
.	16cccc
8FFF 8FF	16dddd-
.	16eeee-
8BBB- 8BB-	16eeeen
.	16ffff
8D- 8F 8d-	16eeee-
.	16dddd-
8r	16cccc
.	16bbb-
8FFF 8FF	16aaan
.	16bbb-
=20	=20
8BBB- 8BB-	16aaa-
.	16ggg-
8D- 8F 8d-	16fff
.	16eeen
8r	16fff
.	16eee-
8FFF 8FF	16ddd-
.	16ccc
8BBB- 8BB-	16bb-
.	16aan
8D- 8F 8d-	16bb-
.	16aa-
8r	16gg-
.	16ff
8FFF 8FF	16ee-
.	16dd-
=21	=21
8BBB- 8BB-	16cc
.	16dd-
8E- 8G- 8e-	16ee-
.	16ff
8r	16gg-
.	16aa-
8FFF 8FF	16bb-
.	16ccc
8BBB- 8BB-	16bb-
.	16aa-
8E- 8G- 8d 8e-	16gg-
.	16ff
8r	16ee-
.	16dd-
8FFF 8FF	16cc
.	16ee-
=22	=22
8BBB-- 8BB--	16gg-
.	16ddn
8E- 8G- 8e-	16ff-
.	16ee-
8r	16cc
.	16g-
8EEE- 8EE-	16bn
.	16cc
8BBB-- 8BB--	16dd-
.	16cc
8E- 8G- 8e-	16ddn
.	16ee-
8r	16ff-
.	16ee-
8EEE- 8EE-	16een
.	16ffn
=23	=23
8BBB-- 8BB--	16aa-
.	16gg-
8E- 8G- 8e-	16bbn
.	16ccc
8r	16ddd-
.	16ccc
8EEE- 8EE-	16dddn
.	16eee-
8BBB-- 8BB--	16fffn
.	16eee-
8E- 8G- 8e-	16eeen
.	16fff
8r	16aaa-
.	16bbb-
8EEE- 8EE-	16aaa-
.	16gggn
=24	=24
8AAA- 8AA-	16ggg-
.	16ffff
8E- 8c 8g-	16eeee-
.	16ggg-
8r	16eeee-
.	16dddd-
8EEE- 8EE-	16fff
.	16dddd-
8AAA- 8AA-	16cccc
.	16eee-
8E- 8c 8g-	16cccc
.	16bbb-
8r	16ddd-
.	16bbb-
8AAA-	16aaa-
.	16ccc
=25	=25
8AA-	16aaa-
.	16ggg-
8F 8d- 8f	16bb-
.	16ggg-
8r	16fff
.	16aa-
8AAA-	16fff
.	16eee-
8AA-	16gg-
.	16eee-
8F 8d-	16ddd-
.	16ff
8r	16bb-
.	16aa-
8AAA-	16ff
.	16dd-
=26	=26
8AA-	16cc
.	16dd-
8E- 8G- 8c	16ee-
.	16een
8r	16ff
.	16gg-
8AAA-	16aa-
.	16bb--
8AA-	16ggn
.	16aa-
8F- 8d-	16ee-
.	16ff-
8r	16a-
.	16ff-
8AAA-	16ee-
.	16dd-
=27	=27
8AA-	16cc
.	16dd-
8E- 8G- 8c	16ee-
.	16een
8r	16ffn
.	16gg-
8AA-	16aa-
.	16bb--
8D-	16gg
.	16aa-
8F- 8d-	16ee-
.	16ff-
8r	16a-
.	16ff-
8GGn	16dd-
.	16cc-
=28	=28
8FF#	16a#
.	16bn
8FF# 8A# 8en	16cc#
.	16ddn
8r	16dd#
.	16een
8FFF#	16ff#
.	16ggn
8FF#	16ee#
.	16ff#
8F# 8Bn 8dn	16dd#
.	16een
8r	16cc#
.	16ddn
8FFn	16bn
.	16an
=29	=29
8EEn	16g#
.	16an
8En 8G# 8dn	16bn
.	16ccn
8r	16cc#
.	16ddn
8EEEn	16een
.	16ffn
8EE	16dd#
.	16ee
8E 8An 8cn	16cc#
.	16ddn
8r	16bn
.	16ccn
8EEE 8EE	16b
.	16a
=30	=30
8FFFn 8FFn	16g#
.	16an
8r	16dd-
.	16cc
4C: 4F: 4e-:	16b-
.	16a
.	16gg-
.	16ff
4BB-: 4F: 4d-:	16ee-
.	16dd-
.	16ccc
.	16bb-
4E-: 4B-: 4g-:	16aa-
.	16gg-
.	16ff
.	16ee-
=31	=31
4AA-: 4G-: 4c:	16dd-
.	16cc
.	16bb-
.	16aa-
4D-: 4A-: 4f:	16gg-
.	16ff
.	16ee-
.	16dd-
4GG-: 4D-: 4B-:	16cc
.	16b-
.	16aa-
.	16gg-
4C: 4G-: 4e-:	16ff
.	16ee-
.	16dd-
.	16cc
=32	=32
4D- 4F 4B- 4d-	16b-
.	16an
.	16a-
.	16gn
4E- 4G- 4B- 4c	16a-
.	16g
.	16g-
.	16f
4r	16gn
.	16g-
.	16f
.	16en
16G-	16g-
16F	16f
16En	16e
16E-	16e-
=33	=33
16F	16f
16En	16en
16E-	16e-
16Dn	16dn
16En	16en
16E-	16e-
16D	16d
16D-	16d-
16E-	16e-
16Dn	16dn
16D-	16d-
16C	16c
16E-	16e-
16D-	16d-
16C	16c
16BB-	16B-
=34	=34
8EE-	16An
.	16B-
8AAn 8G-	16c
.	16d-
8r	16e-
.	16en
8EE-	16f
.	16g-
8DD-	16e
.	16f
8BB- 8F	16dn
.	16e-
8r	16c
.	16d-
8DD-	16c
.	16B-
=35	=35
8EE-	16An
.	16B-
8AAn 8G-	16c
.	16d-
8r	16e-
.	16en
8EE-	16f
.	16g-
8DD-	16en
.	16f
8BB- 8F	16dn
.	16e-
8r	16c
.	16d-
8DD-	16c
.	16B-
=36	=36
8EE-	16c
.	16d-
8BB- 8G-	16e-
.	16f
8r	16g-
.	16cc
8EE-	16b-
.	16c
8FF	16B-
.	16c
8D- 8B-	16d-
.	16e-
8r	16f
.	16cc
8FFF	16b-
.	16g-
=37	=37
8FF	16en
.	16f
8E- 8An	16g-
.	16f
8r	16b-
.	16an
8FF	16gg-
.	16ff
8BB-	16ee-
.	16dd-
8F 8d-	16b-
.	16f
8r	16e-
.	16d-
8DD-	16B-
.	16F
=38	=38
8EE-	16An
.	16B-
8AAn 8G-	16c
.	16d-
8r	16e-
.	16en
8EE-	16f
.	16g-
8DD-	16e
.	16f
8BB- 8F	16dn
.	16e-
8r	16c
.	16d-
8DD-	16c
.	16B-
=39	=39
8EE-	16An
.	16B-
8AAn 8G-	16c
.	16d-
8r	16e-
.	16en
8EE-	16f
.	16g-
8DD-	16en
.	16f
8BB- 8F	16dn
.	16e-
8r	16c
.	16d-
8DD-	16c
.	16B-
=40	=40
4EE- 4C- 4G-	16c-
.	16d-
.	16e-
.	16f-
4r	16g-
.	16a-
.	16b-
.	16cc-
4E- 4G- 4B 4g-	16dd-
.	16ee-
.	16ff-
.	16gg-
4D- 4G- 4B- 4f-	16aa-
.	16bb-
.	16ccc-
.	16ddd-
=41	=41
*^	*
4BB 4G-	2e-	16fff-
.	.	16eee-
.	.	16ccc-
.	.	16aa-
4r	.	16gg-
.	.	16ee-
.	.	16cc-
.	.	16a-
*v	*v	*
2r	16g-
.	16e-
.	16c-
.	16A-
.	16G-
.	16E-
.	16C-
.	16AA-
=42	=42
16EEEn	16EEn
16FFF	16FF
16BBB-	16BB-
16AAAn	16AAn
16GG-	16GG-
16FFF	16FF
16DD-	16D-
16CCn	16Cn
16BBB-	16BB-
16AAA	16AAn
16GG-	16G-
16FF	16F
16DD-	16D-
16CC	16C
16BB-	16B-
16AAn	16An
=43	=43
16GG-	16G-
16FF	16F
16D-	16d-
16C	16c
16BB-	16B-
16AAn	16An
16G-	16g-
16F	16f
16D-	16d-
16C	16c
16B-	16b-
16An	16an
16G-	16g-
16F	16f
16d-	16dd-
16c	16cc
=44	=44
16B-	16b-
16An	16an
16g-	16gg-
16f	16ff
16d-	16dd-
16c	16cc
16b-	16bb-
16an	16aan
16g-	16gg-
16f	16ff
16dd-	16ddd-
16cc	16ccc
16b-	16bb-
16an	16aan
16gg-	16ggg-
16ff	16fff
=45	=45
16dd-	16ddd-
16cc	16ccc
16bb-	16bbb-
16aan	16aaan
16gg-	16ggg-
16ff	16fff
16ddd-	16dddd-
16ccc	16cccc
8fff	8ffff
8r	8r
4FF 4F	4e- 4an 4ff
=46	=46
8BBB-q	.
4BB- 4F 4d-	4b- 4bb-
4r	4r
2r	2r
==	==
*-	*-
